assets/icons/24px/outline/rectangle-small-with-blocks-24px.svg

<svg width="24" height="24" viewBox="0 0 24 24" fill="none" xmlns="http://www.w3.org/2000/svg">
<path d="M9 12C9 11.0681 9 10.6022 9.15224 10.2346C9.35523 9.74458 9.74458 9.35523 10.2346 9.15224C10.6022 9 11.0681 9 12 9V9C12.9319 9 13.3978 9 13.7654 9.15224C14.2554 9.35523 14.6448 9.74458 14.8478 10.2346C15 10.6022 15 11.0681 15 12V12C15 12.9319 15 13.3978 14.8478 13.7654C14.6448 14.2554 14.2554 14.6448 13.7654 14.8478C13.3978 15 12.9319 15 12 15V15C11.0681 15 10.6022 15 10.2346 14.8478C9.74458 14.6448 9.35523 14.2554 9.15224 13.7654C9 13.3978 9 12.9319 9 12V12Z" stroke="white" stroke-width="2"/>
<circle cx="18.5" cy="5.5" r="2.5" stroke="white" stroke-width="2"/>
<circle cx="18.5" cy="18.5" r="2.5" stroke="white" stroke-width="2"/>
<circle cx="5.5" cy="18.5" r="2.5" stroke="white" stroke-width="2"/>
<circle cx="5.5" cy="5.5" r="2.5" stroke="white" stroke-width="2"/>
<path d="M8.20711 6.79289L7.5 6.08579L6.08579 7.5L6.79289 8.20711L8.20711 6.79289ZM8.79289 10.2071L9.5 10.9142L10.9142 9.5L10.2071 8.79289L8.79289 10.2071ZM6.79289 15.7929L6.08579 16.5L7.5 17.9142L8.20711 17.2071L6.79289 15.7929ZM9.70711 15.7071L10.4142 15L9 13.5858L8.29289 14.2929L9.70711 15.7071ZM15.7929 17.2071L16.5 17.9142L17.9142 16.5L17.2071 15.7929L15.7929 17.2071ZM15.7071 14.2929L15 13.5858L13.5858 15L14.2929 15.7071L15.7071 14.2929ZM14.2929 8.29289L13.5858 9L15 10.4142L15.7071 9.70711L14.2929 8.29289ZM17.2071 8.20711L17.9142 7.5L16.5 6.08579L15.7929 6.79289L17.2071 8.20711ZM6.79289 8.20711L8.79289 10.2071L10.2071 8.79289L8.20711 6.79289L6.79289 8.20711ZM8.20711 17.2071L9.70711 15.7071L8.29289 14.2929L6.79289 15.7929L8.20711 17.2071ZM17.2071 15.7929L15.7071 14.2929L14.2929 15.7071L15.7929 17.2071L17.2071 15.7929ZM15.7071 9.70711L17.2071 8.20711L15.7929 6.79289L14.2929 8.29289L15.7071 9.70711Z" fill="white"/>
</svg>

<svg width="24" height="24" fill="none" xmlns="http://www.w3.org/2000/svg"><path d="M9 12c0-.932 0-1.398.152-1.765a2 2 0 0 1 1.083-1.083C10.602 9 11.068 9 12 9c.932 0 1.398 0 1.765.152a2 2 0 0 1 1.083 1.083C15 10.602 15 11.068 15 12c0 .932 0 1.398-.152 1.765a2 2 0 0 1-1.083 1.083C13.398 15 12.932 15 12 15c-.932 0-1.398 0-1.765-.152a2 2 0 0 1-1.083-1.083C9 13.398 9 12.932 9 12z" stroke="#fff" stroke-width="2"/><circle cx="18.5" cy="5.5" r="2.5" stroke="#fff" stroke-width="2"/><circle cx="18.5" cy="18.5" r="2.5" stroke="#fff" stroke-width="2"/><circle cx="5.5" cy="18.5" r="2.5" stroke="#fff" stroke-width="2"/><circle cx="5.5" cy="5.5" r="2.5" stroke="#fff" stroke-width="2"/><path d="M8.207 6.793L7.5 6.086 6.086 7.5l.707.707 1.414-1.414zm.586 3.414l.707.707L10.914 9.5l-.707-.707-1.414 1.414zm-2 5.586l-.707.707L7.5 17.914l.707-.707-1.414-1.414zm2.914-.086l.707-.707L9 13.586l-.707.707 1.414 1.414zm6.086 1.5l.707.707 1.414-1.414-.707-.707-1.414 1.414zm-.086-2.914L15 13.586 13.586 15l.707.707 1.414-1.414zm-1.414-6L13.586 9 15 10.414l.707-.707-1.414-1.414zm2.914-.086l.707-.707L16.5 6.086l-.707.707 1.414 1.414zm-10.414 0l2 2 1.414-1.414-2-2-1.414 1.414zm1.414 9l1.5-1.5-1.414-1.414-1.5 1.5 1.414 1.414zm9-1.414l-1.5-1.5-1.414 1.414 1.5 1.5 1.414-1.414zm-1.5-6.086l1.5-1.5-1.414-1.414-1.5 1.5 1.414 1.414z" fill="#fff"/></svg>
